!!!OTL: Es war einmal ein kleiner Mann (Band 1), S. 236
!!!id: P0860
**kern
*clefG2
*k[f#]
*G:
{8d
=1
8.g
16g
16g
16g
=2
8g
8e
8e
=3
4e
8e
=4
4d}
=5
{8d
=6
8.f#
16g
8a
=7
8g
16a
16b
8b
=8
8a
16a
16a
8b
=9
8g
8b
8dd}
=10
4r
=11
{8d
=12
8.g
16a
8b
=13
8g
8b
8dd
=14
8a
8a
8f#
=15
4g}
==
*-
!!!minrhy: 16
!!!meters: 3/8 ]  ZZ[3
!!!cut: Es war einmal ein kleiner Mann (Band 1), S. 236
!!!reg: Lothringen
!!!trd: PINCK, Louis: Verklingende Weisen, Bd 1, Metz 1928
!!!rhy1: X_  X_.XXX  X_X_X_  X__X_  X__
!!!rhy2: X_  X_.XX_  X_XXX_  X_XXX_  X_X_X_  0__
!!!key: P0860  16  G 3/8 ]  ZZ[3
!!!mod: SECHSTONSKALA DUR ?]  AMBITUS[8
!!!kad: -551
!!!akz: 11-6-5_-7121_1121_
!!!fot: 'a__b__c__
!!!for: 'a__b__c__
!!!fok: '^__/__^a_
!! PHRAS[AUFTAKTIG]
!!!fkt: Spottlied
!! LOTH VKL
!! PR[18] 2K[2] 2G[13] 3K[7] 3G[2] 4A[9] 4Ü[0] 5A[0] 6K[2] 6G[0]
!! 7K[0] 7G[0] 8A[0] MEHR[0] SI[36] ABS[45] SR[16] SP[20]
!! ST[13] 2k[11] 2g[18] 3k[9] 3g[9] 4d[0] 4ü[0] 5d[0] 6k[0] 6g[0]
!! 7k[0] 7g[0] 8d[0] mehr[0] si[47] dm[-11] sr[29] sp[18]
!! 1F[4] 2F[83] 3F[13] 4F[0] LF[0] 2P[0] 3P[0] 4P[0] TRI[0] DF[3] AB[47]
!! TF[0] U3K[0] U3[7] U4[4] U4Ü[0] U5[13] U6K[0] U6[15] U7K[0] U7[11]
!! N1[35] N2K[0] N2[9] N3K[0] N3[7] N4[0] N4Ü[0] N5[0] N6K[0] N6[0]
!!!n7k: 0] N7[0] O1[0] O2K[0] O2[0] O3K[0] O3[0] HÖ[0
